X:362
T:
R:polska
S:Ur von Baumgartens samling, Visby.
O:Gotland, Visby
M:3/4
L:1/16
K:D
FDFA ECEF D4|D2FA AGEG G2F2|FDFA ECEF D4|D2FA AGEG G2F2|
FDEF GABc d4|Adfd dcBA GFED|FDFA ECEF D4|D2FA AGEG G2F2|
FDFA ECEF D4|D2FA AGEG G2F2|FDEF GABc defg|face d4 D4::
cAce B^GBc A4|A2ce edBd d2c2|cAce B^GBc A4|A2ce edBd d2c2|
cAce a^gaf eAce|^gfef e2d2 d2c2|cAce a^gae cAce|dB^GB A2E2 F2=G2|
FDFA ECEF D4|D2FA AGEG G2F2|FDEF GABc defg|face d4 D4:|

